file/mattel.svg

<svg clip-rule="evenodd" fill-rule="evenodd" stroke-linejoin="round" stroke-miterlimit="1.41421" viewBox="0 0 560 400" xmlns="http://www.w3.org/2000/svg"><path d="m322.4 266.3c.4-.1.8-.1 1.2-.3.4-.1.7-.3.9-.6.3-.2.5-.6.6-.9.1-.4.2-.8.2-1.3 0-.4-.1-.8-.2-1.2-.1-.3-.2-.6-.4-.9-.2-.2-.4-.4-.6-.5-.7-.5-1.7-.7-3-.6h-4.3v11.4h1.9v-4.9h1.8l3 4.9h2.1zm-1.6-1.4h-2.1v-3.3h2.3c1.1 0 2.5.2 2.5 1.6 0 1.5-1.3 1.7-2.7 1.7zm9.9-1.7c-.2-1.1-.6-2-1-2.9-1.7-3.2-5.1-5.1-8.8-5.1-.3 0-.7 0-1 .1-.6.1-1.2.2-1.8.3-2.4.7-4.4 2.2-5.7 4.3-.5.8-.9 1.7-1.2 2.6-.2.6-.3 1.3-.4 2v1.1c0 5.9 4.2 10.3 10.2 10.3.3 0 .7 0 1-.1.7-.1 1.3-.2 1.9-.4.9-.3 1.8-.7 2.6-1.2 1.1-.7 2-1.6 2.8-2.7.6-.8 1-1.7 1.3-2.7s.5-2.1.5-3.3c0-.4 0-.8-.1-1.1-.2-.5-.3-.8-.3-1.2zm-2.2 4.1c-.1.6-.3 1.1-.5 1.6-.3.8-.7 1.5-1.2 2.1-1.4 1.9-3.6 3-6.1 3-4.9 0-7.9-3.8-8-8.5 0-2.5.9-4.7 2.3-6.2.4-.4.7-.7 1.2-1 .2-.1.4-.3.7-.4.5-.3.9-.5 1.4-.6.8-.2 1.6-.4 2.4-.4s1.6.1 2.4.4c.5.2 1 .4 1.4.6.2.1.4.3.7.4.8.6 1.6 1.3 2.1 2.2.4.7.8 1.4 1 2.3.2.8.4 1.7.4 2.6 0 .7-.1 1.3-.2 1.9zm11-122.6-.9-.6-2-1.3-33 8.9-14.3-54.3 9.4-2.5 12 45.8 15.8-4.5 11.4-9.6-13.9-6.6 10.2-11.1-15-4.4 9.4-12.1-15.1-1.4 7.6-13.2-16-.6 5.3-14-15 1.4 4-14.8-15.4 4 1.3-16.1-14.2 6.2-.4-15.9-12.9 7.3-2.6-15.2-12.2 9.2-.2-.6-4.2-14.5-11.2 10.8-5-11.3-1.2-2.6-9.2 11.8-8.1-13-7.7 12.8-9.7-11.8-6.1 13.5-10.8-11.1-4.7 14.4-12.2-9.7-2.5 15.4-13.2-8.4-1 15-14.7-6.3 1.1 15.5-14.9-4.4 3.4 14.5-15.8-1.4 4.6 14.2-16.1-.5 6.7 14.4-15.4 1.5 8.4 13-15.4 3.4 10.4 11.8-15.2 4.7 4.5 4 7.2 6.5-13.8 6.7 12.5 9.6-12.9 8.2 1.3.7 7.1 3.7-.3-1.4-.5-2.2 14.5-3.7 22.9 36.5 2.2-43.5 14.8-3.7 14.1 54.2-9.6 2.6-10.5-41.1-3.3 44.8-9.1 2.5-22.7-36.4 9.8 39.8-2.7.7-7.7 14.2 15.7.8-3.4 9.4-1.8 5 1.3-.2 14.1-1.6-4.2 14.5 15.7-3.9-1.9 15.2v.2l14.6-5.9.1 15.5 12.7-7.9 2.1 15.7 12.5-9.9 4.6 15.2 10.8-11.3 6.2 14.5 4.6-5.7 4.8-5.9 2.4 3.8 5.9 9.4 7.7-12.7 10.2 11.8 5.6-13.7 11.4 10.8 2.5-7.4 2.4-7 12.2 9 2.9-14.5 13 8.2.3-15.9 14.2 5.9-1.1-14.8 14.2 4.1 1.1.3-1.7-7.6-1.7-7.7 8.3 1.8 6.6 1.4-2.1-6.4-2.7-8.2 15.4.5-4-8.6-2.5-5.4 16.2.1-8.5-14.5 10.8-2.4 3.8-.9-3.9-5.2-5.3-7.1 14.5-4.6-9.5-9.3-2.1-2.2 10.9-5.1 2.6-1.2-12.1-9.8 6.4-3.8zm-161.8 40.5-6.1-9.7-22.4 6.1-.8 11.4-9.4 2.5 4.3-59.2 12-3.4 32.7 49.4zm59.6-16-9.4 2.5-12.2-45.6-23.8 6.4 11.7 45.8-9.3 2.5-11.8-45.8-17.2 4.7-2.2-8.7 76.3-20.5 2.4 8.3-16.5 4.7zm20.6-5.5-14-54.3 40-10.8 2.3 8.6-31.2 8.3 3.6 13.9 26.8-7.6 2.2 8.3-26.6 7.4 3.9 15.4 31.1-8.3 2.1 8.5zm-106.4-20.3 15 23.9-16.8 4.6zm-81.6 33.1-8.2-2.9 8.7-7.6.6 2.4 2.4 9.3zm7.8 17.5-7.7-2.5-3.9-1.2 4-3.8 4.5-4.3zm3.9 14.6-9.2-.7 6.6-9.3z" fill="#d12421" fill-rule="nonzero" transform="matrix(1.07105 0 0 1.07105 65.7372 39.3966)"/></svg>

<?xml version="1.0" encoding="UTF-8" standalone="no"?>
<!DOCTYPE svg PUBLIC "-//W3C//DTD SVG 1.1//EN" "http://www.w3.org/Graphics/SVG/1.1/DTD/svg11.dtd">
<svg width="100%" height="100%" viewBox="0 0 560 400" version="1.1" xmlns="http://www.w3.org/2000/svg" xmlns:xlink="http://www.w3.org/1999/xlink" xml:space="preserve" xmlns:serif="http://www.serif.com/" style="fill-rule:evenodd;clip-rule:evenodd;stroke-linejoin:round;stroke-miterlimit:1.41421;">
    <g id="logo" transform="matrix(1.07105,0,0,1.07105,65.7372,39.3966)">
        <path d="M322.4,266.3C322.8,266.2 323.2,266.2 323.6,266C324,265.9 324.3,265.7 324.5,265.4C324.8,265.2 325,264.8 325.1,264.5C325.2,264.1 325.3,263.7 325.3,263.2C325.3,262.8 325.2,262.4 325.1,262C325,261.7 324.9,261.4 324.7,261.1C324.5,260.9 324.3,260.7 324.1,260.6C323.4,260.1 322.4,259.9 321.1,260L316.8,260L316.8,271.4L318.7,271.4L318.7,266.5L320.5,266.5L323.5,271.4L325.6,271.4L322.4,266.3ZM320.8,264.9L318.7,264.9L318.7,261.6L321,261.6C322.1,261.6 323.5,261.8 323.5,263.2C323.5,264.7 322.2,264.9 320.8,264.9ZM330.7,263.2C330.5,262.1 330.1,261.2 329.7,260.3C328,257.1 324.6,255.2 320.9,255.2C320.6,255.2 320.2,255.2 319.9,255.3C319.3,255.4 318.7,255.5 318.1,255.6C315.7,256.3 313.7,257.8 312.4,259.9C311.9,260.7 311.5,261.6 311.2,262.5C311,263.1 310.9,263.8 310.8,264.5L310.8,265.6C310.8,271.5 315,275.9 321,275.9C321.3,275.9 321.7,275.9 322,275.8C322.7,275.7 323.3,275.6 323.9,275.4C324.8,275.1 325.7,274.7 326.5,274.2C327.6,273.5 328.5,272.6 329.3,271.5C329.9,270.7 330.3,269.8 330.6,268.8C330.9,267.8 331.1,266.7 331.1,265.5C331.1,265.1 331.1,264.7 331,264.4C330.8,263.9 330.7,263.6 330.7,263.2ZM328.5,267.3C328.4,267.9 328.2,268.4 328,268.9C327.7,269.7 327.3,270.4 326.8,271C325.4,272.9 323.2,274 320.7,274C315.8,274 312.8,270.2 312.7,265.5C312.7,263 313.6,260.8 315,259.3C315.4,258.9 315.7,258.6 316.2,258.3C316.4,258.2 316.6,258 316.9,257.9C317.4,257.6 317.8,257.4 318.3,257.3C319.1,257.1 319.9,256.9 320.7,256.9C321.5,256.9 322.3,257 323.1,257.3C323.6,257.5 324.1,257.7 324.5,257.9C324.7,258 324.9,258.2 325.2,258.3C326,258.9 326.8,259.6 327.3,260.5C327.7,261.2 328.1,261.9 328.3,262.8C328.5,263.6 328.7,264.5 328.7,265.4C328.7,266.1 328.6,266.7 328.5,267.3ZM339.5,144.7L338.6,144.1L336.6,142.8L303.6,151.7L289.3,97.4L298.7,94.9L310.7,140.7L326.5,136.2L337.9,126.6L324,120L334.2,108.9L319.2,104.5L328.6,92.4L313.5,91L321.1,77.8L305.1,77.2L310.4,63.2L295.4,64.6L299.4,49.8L284,53.8L285.3,37.7L271.1,43.9L270.7,28L257.8,35.3L255.2,20.1L243,29.3L242.8,28.7L238.6,14.2L227.4,25L222.4,13.7L221.2,11.1L212,22.9L203.9,9.9L196.2,22.7L186.5,10.9L180.4,24.4L169.6,13.3L164.9,27.7L152.7,18L150.2,33.4L137,25L136,40L121.3,33.7L122.4,49.2L107.5,44.8L110.9,59.3L95.1,57.9L99.7,72.1L83.6,71.6L90.3,86L74.9,87.5L83.3,100.5L67.9,103.9L78.3,115.7L63.1,120.4L67.6,124.4L74.8,130.9L61,137.6L73.5,147.2L60.6,155.4L61.9,156.1L69,159.8L68.7,158.4L68.2,156.2L82.7,152.5L105.6,189L107.8,145.5L122.6,141.8L136.7,196L127.1,198.6L116.6,157.5L113.3,202.3L104.2,204.8L81.5,168.4L91.3,208.2L88.6,208.9L80.9,223.1L96.6,223.9L93.2,233.3L91.4,238.3L92.7,238.1L106.8,236.5L102.6,251L118.3,247.1L116.4,262.3L116.4,262.5L131,256.6L131.1,272.1L143.8,264.2L145.9,279.9L158.4,270L163,285.2L173.8,273.9L180,288.4L184.6,282.7L189.4,276.8L191.8,280.6L197.7,290L205.4,277.3L215.6,289.1L221.2,275.4L232.6,286.2L235.1,278.8L237.5,271.8L249.7,280.8L252.6,266.3L265.6,274.5L265.9,258.6L280.1,264.5L279,249.7L293.2,253.8L294.3,254.1L292.6,246.5L290.9,238.8L299.2,240.6L305.8,242L303.7,235.6L301,227.4L316.4,227.9L312.4,219.3L309.9,213.9L326.1,214L317.6,199.5L328.4,197.1L332.2,196.2L328.3,191L323,183.9L337.5,179.3L328,170L325.9,167.8L336.8,162.7L339.4,161.5L327.3,151.7L333.7,147.9L339.5,144.7ZM177.7,185.2L171.6,175.5L149.2,181.6L148.4,193L139,195.5L143.3,136.3L155.3,132.9L188,182.3L177.7,185.2ZM237.3,169.2L227.9,171.7L215.7,126.1L191.9,132.5L203.6,178.3L194.3,180.8L182.5,135L165.3,139.7L163.1,131L239.4,110.5L241.8,118.8L225.3,123.5L237.3,169.2ZM257.9,163.7L243.9,109.4L283.9,98.6L286.2,107.2L255,115.5L258.6,129.4L285.4,121.8L287.6,130.1L261,137.5L264.9,152.9L296,144.6L298.1,153.1L257.9,163.7ZM151.5,143.4L166.5,167.3L149.7,171.9L151.5,143.4ZM69.9,176.5L61.7,173.6L70.4,166L71,168.4L73.4,177.7L69.9,176.5ZM77.7,194L70,191.5L66.1,190.3L70.1,186.5L74.6,182.2L77.7,194ZM81.6,208.6L72.4,207.9L79,198.6L81.6,208.6Z" style="fill:rgb(209,36,33);fill-rule:nonzero;"/>
    </g>
</svg>
